src/icons/file-icon.svg

<svg width="16" height="16" viewBox="0 0 16 16" fill="none" xmlns="http://www.w3.org/2000/svg">
<path d="M3 6C3 4.59987 3 3.8998 3.27248 3.36502C3.51217 2.89462 3.89462 2.51217 4.36502 2.27248C4.8998 2 5.59987 2 7 2H8.67452C9.1637 2 9.40829 2 9.63846 2.05526C9.84254 2.10425 10.0376 2.18506 10.2166 2.29472C10.4184 2.4184 10.5914 2.59135 10.9373 2.93726L13.0627 5.06274C13.4086 5.40865 13.5816 5.5816 13.7053 5.78343C13.8149 5.96237 13.8957 6.15746 13.9447 6.36154C14 6.59171 14 6.8363 14 7.32548V11C14 12.4001 14 13.1002 13.7275 13.635C13.4878 14.1054 13.1054 14.4878 12.635 14.7275C12.1002 15 11.4001 15 10 15H7C5.59987 15 4.8998 15 4.36502 14.7275C3.89462 14.4878 3.51217 14.1054 3.27248 13.635C3 13.1002 3 12.4001 3 11V6Z" fill="#8080A0"/>
</svg>

<svg xmlns="http://www.w3.org/2000/svg" width="16" height="16" fill="none"><path fill="#8080A0" d="M3 6c0-1.4 0-2.1.272-2.635a2.5 2.5 0 0 1 1.093-1.093C4.9 2 5.6 2 7 2h1.675c.489 0 .733 0 .963.055a2 2 0 0 1 .579.24c.201.123.374.296.72.642l2.126 2.126c.346.346.519.519.642.72q.165.27.24.579c.055.23.055.474.055.963V11c0 1.4 0 2.1-.273 2.635a2.5 2.5 0 0 1-1.092 1.092C12.1 15 11.4 15 10 15H7c-1.4 0-2.1 0-2.635-.273a2.5 2.5 0 0 1-1.093-1.092C3 13.1 3 12.4 3 11z"/></svg>
